X:1
T:Petrie's Frolick
T:Petrie's Frolick
T:Robert Petrie
C:Robert Petrie
L:1/8
M:2/2
K:E
V:1 treble 
V:1
 e2 (g>e)(b>e)(g>e) | (f>g)(a>g) (Tf>e)(d>B) | e2 (g>e)(b>e)(g>e) | (c/e/)c TB>A (G>E) E2 :| %4
 (g<b)(b>g)(b>g)(e>g) | (f>g)(a>g) (Tf>e)(d>B) |9 g<b(b>g) (b>g)(e>g) | %7
 (a/g/)f/e/ (d/e/)f/d/ [Be]2 [Be]2 | (g>b)(b>g) (e>B)(c>B) | (A/G/A/B/) (c/B/A/G/) A<FF>A | %10
 G/(E/F/G/ A/B/c/d/) (e/d/c/B/ A/G/F/E/) | (c/e/)c TB>A (G>E)E || %12

